Adwaita++-Dark/mimetypes/16/html.svg

<svg height="16" width="16" xmlns="http://www.w3.org/2000/svg">
  <g fill="#e6ddff">
    <path d="m1.790689 8.2000002 2.8147155-3.6224006-.9405381-1.1775994-3.6648664 4.8 3.7621624 4.7999998 1.0378376-1.075202z"/>
    <path d="m8.8 5.0000002h1.6s-3.2 6.3999998-3.2 6.3999998-1.2823376 0-1.6 0c0 0 3.2-6.3999998 3.2-6.3999998z" fill-rule="evenodd"/>
    <path d="m14.216216 8.1103996-2.821621-3.5328.940539-1.1775994 3.664866 4.7103994-3.762162 4.8896004-1.037838-1.075202z"/>
  </g>
</svg>

<svg xmlns="http://www.w3.org/2000/svg" width="16" height="16" version="1.1">
 <g>
  <path style="fill:#E6DDFF" d="M 1.790689,8.2000002 4.6054045,4.5775996 3.6648664,3.4000002 0,8.2000002 3.7621624,13 4.8,11.924798 1.790689,8.2000002 Z"/>
  <path style="fill:#E6DDFF;fill-rule:evenodd" d="m 8.8,5.0000002 c 0,0 1.6,0 1.6,0 0,0 -3.2,6.3999998 -3.2,6.3999998 0,0 -1.2823376,0 -1.6,0 0,0 3.2,-6.3999998 3.2,-6.3999998 z"/>
  <path style="fill:#E6DDFF" d="M 14.216216,8.1103996 11.394595,4.5775996 12.335134,3.4000002 16,8.1103996 12.237838,13 11.2,11.924798 14.216216,8.1103996 Z"/>
 </g>
</svg>
